X:1
T:Altan
M:6/8
Q:1/4=120
K:A
E6|E2EFED|C2EA,2A,|D2DCB,A,|D3D3|-D5E|EEEFED|
CCEA,2B,|C2EDB,G,|A,3A,3|-A,5C|C2B,A,CE|EFGA2A,|
A,A,A,A,CD|E2F=G3|-=G6|=G2A4|-A3A2F|EEDCDE|
A,2B,C2E|DCB,A,3|A,6|-A,6||
